X: 93
T:Bernadette's reel
R:reel
C:Jerry Holland
M:C|
L:1/8
K:C
B,|:A,2AGA2AB,|A,AAc BGGA|A,AAGA2Ac|[1 BGGe dGGA:|[2 BGGedGGd||
|:cdef gedc|BGGE GFFA|[1 cdef gece|dGAB c/c/c cd:|[2 cdef gecg|dGAB c2cz|

